X:1
T:The Nightingale
T:The Nightingale
T:Thomas Weelkes
T:Glee
T:Source : Collection of Catches, Canons & Glees---London---Longman & Broderip---1762-64. Editor : André Vierendeels (13/05/14).
C:Thomas Weelkes
%%score [ 1 2 3 ]
L:1/8
Q:1/4=80
M:4/4
K:Bb
V:1 treble nm="Soprano 1" snm="S 1"
V:2 treble nm="Soprano 2" snm="S 2"
V:3 bass nm="Bass" snm="B"
V:1
 F4 cB AG | FG AB AB cd | c2 f2 f3 =e/d/ | c4 B2 A2 | G3 G A4 | z4 z2 d2 | dcdc dcBc | d4 z2 e2 | %8
w: The Night- * * *|* * * * * * in- *|gale, the or- * *|* * gan|of de- light,|the|nim- ble nim- ble nim- ble nim- ble|lark, the|
 c4 d4 | z2 A2 =B4 | c2 c3 B A2 | G2 F2 =E4 | z4 z2 c2 | d=e f4 e2 | d3 d c2 A2 | G4 z2 G2 | %16
w: black bird,|the black|bird and- * the|thruth, the thruth,|and|all the pret- ty|cho- ris- ters of|flight that|
 c3 B A2 G2 | A2 A2 G3 G | A4 z2 c2 | f3 e d2 c2 | B2 A2 G3 G |1 A8 :|2 A4 z2 c2 || c2 c2 d4 | %24
w: chaunt their mu- sic|notes on ev' ry|buth, that|chaunt their mu- sic|notes on ev' ry|buth.|buth. Let|them no more|
 B2 e4 c2 | c2 =B2 c2 G2 | z2 c2 A4 | z2 f2 d3 d | g =e2 z g e2 z | z g =e2 c2 z f | %30
w: con- tend who|shall ex- cell the|cuc- koo|cuc- koo, the|cuc- koo cuc- koo|cuc- koo, the cuc-|
 d2 z f d2 z B | G2 z c A2 z c | A2 z c A2 z2 | d3 d c2 A2 | G3 G F4 | z2 c2 c2 c2 | d4 B2 e2- | %37
w: koo cuc- koo cuc-|koo cuc- koo cuc-|koo cuc- koo|is the bird that|bears the bell,|let them no|more con- tend|
 e2 c2 c2 =B2 | c2 G2 z2 c2 | A4 z2 f2 | d3 d g =e2 z | g =e2 z z g e2 | c2 z f d2 z f | %43
w: _ who shall ex-|cell the cuc-|koo cuc-|koo, yhe cuc- koo|cuc- koo cuc- koo,|the cuc- koo cuc-|
 d2 z B G2 z c | A2 z c A2 z c |"^f" A2 z2 d3 d | c2 A2 G3 G | !fermata!F8 |] %48
w: koo cuc- koo cuc-|koo cuc- koo cuc-|koo is the|bird that bears the|bell.|
V:2
 z4 F4 | cB AG FG AB | A2 Bc d3 c/B/ | A4 G2 F2- | F2 =E2 F4 | z4 z2 B2 | BABA BAGA | B4 z2 G2 | %8
w: The|Night- * * * * * * *|* in- * gale, the _|or- gan of|_ de- light,|the|nim- ble nim- ble nim- ble nim- ble|lark, the|
 A4 B4 | z2 f2 d4 | =e4 z2 c2- | cB A2 G4 | z2 F2 AB c2- | c2 B2 A2 GA | =B c2 B c4 | z2 G2 c3 B | %16
w: black bird|the black|bird and|_ _ the thruth,|and all the pret-|* ty cho- ris- *|ter _ of flight|that chaunt their|
 A2 G2 F2 =E2 | F6 =E2 | F2 c2 f3 e | d2 c2 B2 A2 | G2 F4 =E2 |1 F8 :|2 F4 z2 A2 || A2 A2 B4 | %24
w: mu- sic notes on|ev' ry|buth, that chaunt their|mu- sic notes on|ev'- * ry|buth.|buth. Let|them no more|
 G2 G4 G2 | A2 F2 =E4- | E2 G2 z2 c2 | A4 f2 d2 | z c g2 =e2 z g | =e2 z c A2 F2 | z f d2 z f d2 | %31
w: con- tend who|shall ex- cell|_ the cuc-|koo cuc- koo|cuc- koo, the cuc-|koo cuc- koo, the|cuc- koo cuc- koo|
 =ee f2 z c A2 | z c A2 z c A2 | B3 B A2 F2 | F2 =E2 F4 |"^p" z2 A2 A2 A2 | B4 G2 G2- | %37
w: is the bird cuc- koo|cuc- koo cuc- koo|is the bird that|bears the bell,|let them no|more con- tend|
 G2 G2 A2 F2 | =E6 G2 | z2 c2 A4 | f2 d2 z c g2 | =e2 z g e2 z c | A2 F2 z f d2 | z f d2 =ee f2 | %44
w: _ who shall ex-|cell the|cuc- koo|cuc- koo cuc- koo,|the cuc- koo cuc-|koo, the cuc- koo|cuc- koo is the bird|
 z c A2 z c A2 |"^f" z c A2 B3 B | A2 F2 F2 =E2 | !fermata!F8 |] %48
w: cuc- koo cuc- koo|cuc- koo is the|bird that bears the|bell.|
V:3
 z8 | z4 F,,4 | F,E, D,C, B,,C, D,=E, | F,2 F,,2 G,,2 A,,B,, | C,3 C, F,,2 F,2 | %5
w: |The|Night- * * * * * in- *|gale, the or- ga _|of de- light, the|
 F,=E,F,E, F,E,D,E, | F,4 z4 | z2 B,,2 E,,4 | F,,4 z2 B,,2 | F,,4 G,,4 | C,3 D, =E,2 F,2 | %11
w: nim- ble nim- ble nim- ble nim- ble|lark,|the black|bird, the|black bird|and _ _ the|
 C,4 z2 C,2 | D,=E, F,4 E,2 | D,3 D, C,2 C,2 | G,,4 z2 F,,2 | C,3 B,, A,,2 G,,2 | %16
w: thruth, and|all the pret- ty|cho- ris- ters of|flight that|chaunt their mu- sic|
 F,,2 =E,,2 F,,2 C,2 | F,,4 z2 C,2 | F,3 E, D,2 C,2 | B,,B, A,2 B,G, A,F, | G,=E,F,B,, C,3 C, |1 %21
w: notes on ev'- ry|buth, that|chaunt,- that chaunt their|mu- * sic notes _ _ _|_ _ _ on ev'- ry|
 F,,8 :|2 F,,4 z2 F,2 || F,2 F,2 B,,4 | E,2 C,4 =E,2 | F,2 D,2 C,4- | C,4 z2 F,,2 | %27
w: buth.|buth. Let|them no more|con- tend who|shall ex- cell|_ the|
 F,2 D,3 D, G,2 | =E,2 C,4 C,2 | C,2 C,2 z F, D,2 | B,,3 B,, B,,2 B,,2 | z C, A,,2 F,,4- | %32
w: cuc- koo, thr cuc-|koo is the|bird, the cuc- koo|is the bird, the|cuc- koo is|
 F,,2 F,,2 F,,4 | B,,4 F,,4 | C,4 F,,4 |"^p" z2 F,2 F,2 F,2 | B,,4 E,2 C,2- | C,2 =E,2 F,2 D,2 | %38
w: _ the bird|that bears|the bell,|let them no|more con- tent|_ who shal ex-|
 C,8 | z2 F,,2 F,2 D,2- | D,D, G,2 =E,2 C,2- | C,2 C,2 C,2 C,2 | z F, D,2 B,,3 B,, | %43
w: cel|the cuc- koo|_ the cuc- koo is|_ the bird, the|cuc- koo is the|
 B,,2 B,,2 z C, A,,2 | F,,6 F,2 |"^f" F,4 B,4 | F,4 C,4 | !fermata!F,,8 |] %48
w: bird, the cuc- koo|is the|bird that|bears the|bell.|

